src/test/test1/test2/test/public/assets/textures/Exo2.CUBE
#Created by: Adobe Photoshop Export Color Lookup Plugin
TITLE "Capture.JPG"
#LUT size
LUT_3D_SIZE 8
#data domain
#LUT data points
DOMAIN_MIN 0.000000 0.000000 0.000000
DOMAIN_MAX 0.965517 0.965517 0.965517
0.000000 0.000000 0.055908
0.133240 0.000000 0.055908
0.346191 0.000000 0.055908
0.517639 0.000000 0.055908
0.668945 0.000000 0.055908
0.807404 0.000000 0.055908
0.936615 0.000000 0.055908
1.000000 0.000000 0.055908
0.000000 0.041748 0.055908
0.133240 0.041748 0.055908
0.346191 0.041748 0.055908
0.517639 0.041748 0.055908
0.668945 0.041748 0.055908
0.807404 0.041748 0.055908
0.936615 0.041748 0.055908
1.000000 0.041748 0.055908
0.000000 0.261597 0.055908
0.133240 0.261597 0.055908
0.346191 0.261597 0.055908
0.517639 0.261597 0.055908
0.668945 0.261597 0.055908
0.807404 0.261597 0.055908
0.936615 0.261597 0.055908
1.000000 0.261597 0.055908
0.000000 0.441559 0.055908
0.133240 0.441559 0.055908
0.346191 0.441559 0.055908
0.517639 0.441559 0.055908
0.668945 0.441559 0.055908
0.807404 0.441559 0.055908
0.936615 0.441559 0.055908
1.000000 0.441559 0.055908
0.000000 0.606140 0.055908
0.133240 0.606140 0.055908
0.346191 0.606140 0.055908
0.517639 0.606140 0.055908
0.668945 0.606140 0.055908
0.807404 0.606140 0.055908
0.936615 0.606140 0.055908
1.000000 0.606140 0.055908
0.000000 0.761322 0.055908
0.133240 0.761322 0.055908
0.346191 0.761322 0.055908
0.517639 0.761322 0.055908
0.668945 0.761322 0.055908
0.807404 0.761322 0.055908
0.936615 0.761322 0.055908
1.000000 0.761322 0.055908
0.000000 0.909790 0.055908
0.133240 0.909790 0.055908
0.346191 0.909790 0.055908
0.517639 0.909790 0.055908
0.668945 0.909790 0.055908
0.807404 0.909790 0.055908
0.936615 0.909790 0.055908
1.000000 0.909790 0.055908
0.000000 1.000000 0.055908
0.133240 1.000000 0.055908
0.346191 1.000000 0.055908
0.517639 1.000000 0.055908
0.668945 1.000000 0.055908
0.807404 1.000000 0.055908
0.936615 1.000000 0.055908
1.000000 1.000000 0.055908
0.000000 0.000000 0.159363
0.133240 0.000000 0.159363
0.346191 0.000000 0.159363
0.517639 0.000000 0.159363
0.668945 0.000000 0.159363
0.807404 0.000000 0.159363
0.936615 0.000000 0.159363
1.000000 0.000000 0.159363
0.000000 0.041748 0.159363
0.133240 0.041748 0.159363
0.346191 0.041748 0.159363
0.517639 0.041748 0.159363
0.668945 0.041748 0.159363
0.807404 0.041748 0.159363
0.936615 0.041748 0.159363
1.000000 0.041748 0.159363
0.000000 0.261597 0.159363
0.133240 0.261597 0.159363
0.346191 0.261597 0.159363
0.517639 0.261597 0.159363
0.668945 0.261597 0.159363
0.807404 0.261597 0.159363
0.936615 0.261597 0.159363
1.000000 0.261597 0.159363
0.000000 0.441559 0.159363
0.133240 0.441559 0.159363
0.346191 0.441559 0.159363
0.517639 0.441559 0.159363
0.668945 0.441559 0.159363
0.807404 0.441559 0.159363
0.936615 0.441559 0.159363
1.000000 0.441559 0.159363
0.000000 0.606140 0.159363
0.133240 0.606140 0.159363
0.346191 0.606140 0.159363
0.517639 0.606140 0.159363
0.668945 0.606140 0.159363
0.807404 0.606140 0.159363
0.936615 0.606140 0.159363
1.000000 0.606140 0.159363
0.000000 0.761322 0.159363
0.133240 0.761322 0.159363
0.346191 0.761322 0.159363
0.517639 0.761322 0.159363
0.668945 0.761322 0.159363
0.807404 0.761322 0.159363
0.936615 0.761322 0.159363
1.000000 0.761322 0.159363
0.000000 0.909790 0.159363
0.133240 0.909790 0.159363
0.346191 0.909790 0.159363
0.517639 0.909790 0.159363
0.668945 0.909790 0.159363
0.807404 0.909790 0.159363
0.936615 0.909790 0.159363
1.000000 0.909790 0.159363
0.000000 1.000000 0.159363
0.133240 1.000000 0.159363
0.346191 1.000000 0.159363
0.517639 1.000000 0.159363
0.668945 1.000000 0.159363
0.807404 1.000000 0.159363
0.936615 1.000000 0.159363
1.000000 1.000000 0.159363
0.000000 0.000000 0.374817
0.133240 0.000000 0.374817
0.346191 0.000000 0.374817
0.517639 0.000000 0.374817
0.668945 0.000000 0.374817
0.807404 0.000000 0.374817
0.936615 0.000000 0.374817
1.000000 0.000000 0.374817
0.000000 0.041748 0.374817
0.133240 0.041748 0.374817
0.346191 0.041748 0.374817
0.517639 0.041748 0.374817
0.668945 0.041748 0.374817
0.807404 0.041748 0.374817
0.936615 0.041748 0.374817
1.000000 0.041748 0.374817
0.000000 0.261597 0.374817
0.133240 0.261597 0.374817
0.346191 0.261597 0.374817
0.517639 0.261597 0.374817
0.668945 0.261597 0.374817
0.807404 0.261597 0.374817
0.936615 0.261597 0.374817
1.000000 0.261597 0.374817
0.000000 0.441559 0.374817
0.133240 0.441559 0.374817
0.346191 0.441559 0.374817
0.517639 0.441559 0.374817
0.668945 0.441559 0.374817
0.807404 0.441559 0.374817
0.936615 0.441559 0.374817
1.000000 0.441559 0.374817
0.000000 0.606140 0.374817
0.133240 0.606140 0.374817
0.346191 0.606140 0.374817
0.517639 0.606140 0.374817
0.668945 0.606140 0.374817
0.807404 0.606140 0.374817
0.936615 0.606140 0.374817
1.000000 0.606140 0.374817
0.000000 0.761322 0.374817
0.133240 0.761322 0.374817
0.346191 0.761322 0.374817
0.517639 0.761322 0.374817
0.668945 0.761322 0.374817
0.807404 0.761322 0.374817
0.936615 0.761322 0.374817
1.000000 0.761322 0.374817
0.000000 0.909790 0.374817
0.133240 0.909790 0.374817
0.346191 0.909790 0.374817
0.517639 0.909790 0.374817
0.668945 0.909790 0.374817
0.807404 0.909790 0.374817
0.936615 0.909790 0.374817
1.000000 0.909790 0.374817
0.000000 1.000000 0.374817
0.133240 1.000000 0.374817
0.346191 1.000000 0.374817
0.517639 1.000000 0.374817
0.668945 1.000000 0.374817
0.807404 1.000000 0.374817
0.936615 1.000000 0.374817
1.000000 1.000000 0.374817
0.000000 0.000000 0.541504
0.133240 0.000000 0.541504
0.346191 0.000000 0.541504
0.517639 0.000000 0.541504
0.668945 0.000000 0.541504
0.807404 0.000000 0.541504
0.936615 0.000000 0.541504
1.000000 0.000000 0.541504
0.000000 0.041748 0.541504
0.133240 0.041748 0.541504
0.346191 0.041748 0.541504
0.517639 0.041748 0.541504
0.668945 0.041748 0.541504
0.807404 0.041748 0.541504
0.936615 0.041748 0.541504
1.000000 0.041748 0.541504
0.000000 0.261597 0.541504
0.133240 0.261597 0.541504
0.346191 0.261597 0.541504
0.517639 0.261597 0.541504
0.668945 0.261597 0.541504
0.807404 0.261597 0.541504
0.936615 0.261597 0.541504
1.000000 0.261597 0.541504
0.000000 0.441559 0.541504
0.133240 0.441559 0.541504
0.346191 0.441559 0.541504
0.517639 0.441559 0.541504
0.668945 0.441559 0.541504
0.807404 0.441559 0.541504
0.936615 0.441559 0.541504
1.000000 0.441559 0.541504
0.000000 0.606140 0.541504
0.133240 0.606140 0.541504
0.346191 0.606140 0.541504
0.517639 0.606140 0.541504
0.668945 0.606140 0.541504
0.807404 0.606140 0.541504
0.936615 0.606140 0.541504
1.000000 0.606140 0.541504
0.000000 0.761322 0.541504
0.133240 0.761322 0.541504
0.346191 0.761322 0.541504
0.517639 0.761322 0.541504
0.668945 0.761322 0.541504
0.807404 0.761322 0.541504
0.936615 0.761322 0.541504
1.000000 0.761322 0.541504
0.000000 0.909790 0.541504
0.133240 0.909790 0.541504
0.346191 0.909790 0.541504
0.517639 0.909790 0.541504
0.668945 0.909790 0.541504
0.807404 0.909790 0.541504
0.936615 0.909790 0.541504
1.000000 0.909790 0.541504
0.000000 1.000000 0.541504
0.133240 1.000000 0.541504
0.346191 1.000000 0.541504
0.517639 1.000000 0.541504
0.668945 1.000000 0.541504
0.807404 1.000000 0.541504
0.936615 1.000000 0.541504
1.000000 1.000000 0.541504
0.000000 0.000000 0.686798
0.133240 0.000000 0.686798
0.346191 0.000000 0.686798
0.517639 0.000000 0.686798
0.668945 0.000000 0.686798
0.807404 0.000000 0.686798
0.936615 0.000000 0.686798
1.000000 0.000000 0.686798
0.000000 0.041748 0.686798
0.133240 0.041748 0.686798
0.346191 0.041748 0.686798
0.517639 0.041748 0.686798
0.668945 0.041748 0.686798
0.807404 0.041748 0.686798
0.936615 0.041748 0.686798
1.000000 0.041748 0.686798
0.000000 0.261597 0.686798
0.133240 0.261597 0.686798
0.346191 0.261597 0.686798
0.517639 0.261597 0.686798
0.668945 0.261597 0.686798
0.807404 0.261597 0.686798
0.936615 0.261597 0.686798
1.000000 0.261597 0.686798
0.000000 0.441559 0.686798
0.133240 0.441559 0.686798
0.346191 0.441559 0.686798
0.517639 0.441559 0.686798
0.668945 0.441559 0.686798
0.807404 0.441559 0.686798
0.936615 0.441559 0.686798
1.000000 0.441559 0.686798
0.000000 0.606140 0.686798
0.133240 0.606140 0.686798
0.346191 0.606140 0.686798
0.517639 0.606140 0.686798
0.668945 0.606140 0.686798
0.807404 0.606140 0.686798
0.936615 0.606140 0.686798
1.000000 0.606140 0.686798
0.000000 0.761322 0.686798
0.133240 0.761322 0.686798
0.346191 0.761322 0.686798
0.517639 0.761322 0.686798
0.668945 0.761322 0.686798
0.807404 0.761322 0.686798
0.936615 0.761322 0.686798
1.000000 0.761322 0.686798
0.000000 0.909790 0.686798
0.133240 0.909790 0.686798
0.346191 0.909790 0.686798
0.517639 0.909790 0.686798
0.668945 0.909790 0.686798
0.807404 0.909790 0.686798
0.936615 0.909790 0.686798
1.000000 0.909790 0.686798
0.000000 1.000000 0.686798
0.133240 1.000000 0.686798
0.346191 1.000000 0.686798
0.517639 1.000000 0.686798
0.668945 1.000000 0.686798
0.807404 1.000000 0.686798
0.936615 1.000000 0.686798
1.000000 1.000000 0.686798
0.000000 0.000000 0.819702
0.133240 0.000000 0.819702
0.346191 0.000000 0.819702
0.517639 0.000000 0.819702
0.668945 0.000000 0.819702
0.807404 0.000000 0.819702
0.936615 0.000000 0.819702
1.000000 0.000000 0.819702
0.000000 0.041748 0.819702
0.133240 0.041748 0.819702
0.346191 0.041748 0.819702
0.517639 0.041748 0.819702
0.668945 0.041748 0.819702
0.807404 0.041748 0.819702
0.936615 0.041748 0.819702
1.000000 0.041748 0.819702
0.000000 0.261597 0.819702
0.133240 0.261597 0.819702
0.346191 0.261597 0.819702
0.517639 0.261597 0.819702
0.668945 0.261597 0.819702
0.807404 0.261597 0.819702
0.936615 0.261597 0.819702
1.000000 0.261597 0.819702
0.000000 0.441559 0.819702
0.133240 0.441559 0.819702
0.346191 0.441559 0.819702
0.517639 0.441559 0.819702
0.668945 0.441559 0.819702
0.807404 0.441559 0.819702
0.936615 0.441559 0.819702
1.000000 0.441559 0.819702
0.000000 0.606140 0.819702
0.133240 0.606140 0.819702
0.346191 0.606140 0.819702
0.517639 0.606140 0.819702
0.668945 0.606140 0.819702
0.807404 0.606140 0.819702
0.936615 0.606140 0.819702
1.000000 0.606140 0.819702
0.000000 0.761322 0.819702
0.133240 0.761322 0.819702
0.346191 0.761322 0.819702
0.517639 0.761322 0.819702
0.668945 0.761322 0.819702
0.807404 0.761322 0.819702
0.936615 0.761322 0.819702
1.000000 0.761322 0.819702
0.000000 0.909790 0.819702
0.133240 0.909790 0.819702
0.346191 0.909790 0.819702
0.517639 0.909790 0.819702
0.668945 0.909790 0.819702
0.807404 0.909790 0.819702
0.936615 0.909790 0.819702
1.000000 0.909790 0.819702
0.000000 1.000000 0.819702
0.133240 1.000000 0.819702
0.346191 1.000000 0.819702
0.517639 1.000000 0.819702
0.668945 1.000000 0.819702
0.807404 1.000000 0.819702
0.936615 1.000000 0.819702
1.000000 1.000000 0.819702
0.000000 0.000000 0.943237
0.133240 0.000000 0.943237
0.346191 0.000000 0.943237
0.517639 0.000000 0.943237
0.668945 0.000000 0.943237
0.807404 0.000000 0.943237
0.936615 0.000000 0.943237
1.000000 0.000000 0.943237
0.000000 0.041748 0.943237
0.133240 0.041748 0.943237
0.346191 0.041748 0.943237
0.517639 0.041748 0.943237
0.668945 0.041748 0.943237
0.807404 0.041748 0.943237
0.936615 0.041748 0.943237
1.000000 0.041748 0.943237
0.000000 0.261597 0.943237
0.133240 0.261597 0.943237
0.346191 0.261597 0.943237
0.517639 0.261597 0.943237
0.668945 0.261597 0.943237
0.807404 0.261597 0.943237
0.936615 0.261597 0.943237
1.000000 0.261597 0.943237
0.000000 0.441559 0.943237
0.133240 0.441559 0.943237
0.346191 0.441559 0.943237
0.517639 0.441559 0.943237
0.668945 0.441559 0.943237
0.807404 0.441559 0.943237
0.936615 0.441559 0.943237
1.000000 0.441559 0.943237
0.000000 0.606140 0.943237
0.133240 0.606140 0.943237
0.346191 0.606140 0.943237
0.517639 0.606140 0.943237
0.668945 0.606140 0.943237
0.807404 0.606140 0.943237
0.936615 0.606140 0.943237
1.000000 0.606140 0.943237
0.000000 0.761322 0.943237
0.133240 0.761322 0.943237
0.346191 0.761322 0.943237
0.517639 0.761322 0.943237
0.668945 0.761322 0.943237
0.807404 0.761322 0.943237
0.936615 0.761322 0.943237
1.000000 0.761322 0.943237
0.000000 0.909790 0.943237
0.133240 0.909790 0.943237
0.346191 0.909790 0.943237
0.517639 0.909790 0.943237
0.668945 0.909790 0.943237
0.807404 0.909790 0.943237
0.936615 0.909790 0.943237
1.000000 0.909790 0.943237
0.000000 1.000000 0.943237
0.133240 1.000000 0.943237
0.346191 1.000000 0.943237
0.517639 1.000000 0.943237
0.668945 1.000000 0.943237
0.807404 1.000000 0.943237
0.936615 1.000000 0.943237
1.000000 1.000000 0.943237
0.000000 0.000000 1.000000
0.133240 0.000000 1.000000
0.346191 0.000000 1.000000
0.517639 0.000000 1.000000
0.668945 0.000000 1.000000
0.807404 0.000000 1.000000
0.936615 0.000000 1.000000
1.000000 0.000000 1.000000
0.000000 0.041748 1.000000
0.133240 0.041748 1.000000
0.346191 0.041748 1.000000
0.517639 0.041748 1.000000
0.668945 0.041748 1.000000
0.807404 0.041748 1.000000
0.936615 0.041748 1.000000
1.000000 0.041748 1.000000
0.000000 0.261597 1.000000
0.133240 0.261597 1.000000
0.346191 0.261597 1.000000
0.517639 0.261597 1.000000
0.668945 0.261597 1.000000
0.807404 0.261597 1.000000
0.936615 0.261597 1.000000
1.000000 0.261597 1.000000
0.000000 0.441559 1.000000
0.133240 0.441559 1.000000
0.346191 0.441559 1.000000
0.517639 0.441559 1.000000
0.668945 0.441559 1.000000
0.807404 0.441559 1.000000
0.936615 0.441559 1.000000
1.000000 0.441559 1.000000
0.000000 0.606140 1.000000
0.133240 0.606140 1.000000
0.346191 0.606140 1.000000
0.517639 0.606140 1.000000
0.668945 0.606140 1.000000
0.807404 0.606140 1.000000
0.936615 0.606140 1.000000
1.000000 0.606140 1.000000
0.000000 0.761322 1.000000
0.133240 0.761322 1.000000
0.346191 0.761322 1.000000
0.517639 0.761322 1.000000
0.668945 0.761322 1.000000
0.807404 0.761322 1.000000
0.936615 0.761322 1.000000
1.000000 0.761322 1.000000
0.000000 0.909790 1.000000
0.133240 0.909790 1.000000
0.346191 0.909790 1.000000
0.517639 0.909790 1.000000
0.668945 0.909790 1.000000
0.807404 0.909790 1.000000
0.936615 0.909790 1.000000
1.000000 0.909790 1.000000
0.000000 1.000000 1.000000
0.133240 1.000000 1.000000
0.346191 1.000000 1.000000
0.517639 1.000000 1.000000
0.668945 1.000000 1.000000
0.807404 1.000000 1.000000
0.936615 1.000000 1.000000
1.000000 1.000000 1.000000
