src/test/test1/test2/test/public/assets/textures/Exo2.CUBE
#Created by: Adobe Photoshop Export Color Lookup Plugin
TITLE "Capture.JPG"
#LUT size
LUT_3D_SIZE 30
#data domain
DOMAIN_MIN 0.0 0.0 0.0
DOMAIN_MAX 1.0 1.0 1.0
#LUT data points
0.000000 0.000000 0.055908
0.000000 0.000000 0.055908
0.000000 0.000000 0.055908
0.062744 0.000000 0.055908
0.133240 0.000000 0.055908
0.193390 0.000000 0.055908
0.247894 0.000000 0.055908
0.298645 0.000000 0.055908
0.346191 0.000000 0.055908
0.391663 0.000000 0.055908
0.435181 0.000000 0.055908
0.477142 0.000000 0.055908
0.517639 0.000000 0.055908
0.557068 0.000000 0.055908
0.595245 0.000000 0.055908
0.632538 0.000000 0.055908
0.668945 0.000000 0.055908
0.704559 0.000000 0.055908
0.739532 0.000000 0.055908
0.773743 0.000000 0.055908
0.807404 0.000000 0.055908
0.840393 0.000000 0.055908
0.872986 0.000000 0.055908
0.904968 0.000000 0.055908
0.936615 0.000000 0.055908
0.967712 0.000000 0.055908
0.998413 0.000000 0.055908
1.000000 0.000000 0.055908
1.000000 0.000000 0.055908
1.000000 0.000000 0.055908
0.000000 0.000000 0.055908
0.000000 0.000000 0.055908
0.000000 0.000000 0.055908
0.062744 0.000000 0.055908
0.133240 0.000000 0.055908
0.193390 0.000000 0.055908
0.247894 0.000000 0.055908
0.298645 0.000000 0.055908
0.346191 0.000000 0.055908
0.391663 0.000000 0.055908
0.435181 0.000000 0.055908
0.477142 0.000000 0.055908
0.517639 0.000000 0.055908
0.557068 0.000000 0.055908
0.595245 0.000000 0.055908
0.632538 0.000000 0.055908
0.668945 0.000000 0.055908
0.704559 0.000000 0.055908
0.739532 0.000000 0.055908
0.773743 0.000000 0.055908
0.807404 0.000000 0.055908
0.840393 0.000000 0.055908
0.872986 0.000000 0.055908
0.904968 0.000000 0.055908
0.936615 0.000000 0.055908
0.967712 0.000000 0.055908
0.998413 0.000000 0.055908
1.000000 0.000000 0.055908
1.000000 0.000000 0.055908
1.000000 0.000000 0.055908
0.000000 0.000000 0.055908
0.000000 0.000000 0.055908
0.000000 0.000000 0.055908
0.062744 0.000000 0.055908
0.133240 0.000000 0.055908
0.193390 0.000000 0.055908
0.247894 0.000000 0.055908
0.298645 0.000000 0.055908
0.346191 0.000000 0.055908
0.391663 0.000000 0.055908
0.435181 0.000000 0.055908
0.477142 0.000000 0.055908
0.517639 0.000000 0.055908
0.557068 0.000000 0.055908
0.595245 0.000000 0.055908
0.632538 0.000000 0.055908
0.668945 0.000000 0.055908
0.704559 0.000000 0.055908
0.739532 0.000000 0.055908
0.773743 0.000000 0.055908
0.807404 0.000000 0.055908
0.840393 0.000000 0.055908
0.872986 0.000000 0.055908
0.904968 0.000000 0.055908
0.936615 0.000000 0.055908
0.967712 0.000000 0.055908
0.998413 0.000000 0.055908
1.000000 0.000000 0.055908
1.000000 0.000000 0.055908
1.000000 0.000000 0.055908
0.000000 0.000000 0.055908
0.000000 0.000000 0.055908
0.000000 0.000000 0.055908
0.062744 0.000000 0.055908
0.133240 0.000000 0.055908
0.193390 0.000000 0.055908
0.247894 0.000000 0.055908
0.298645 0.000000 0.055908
0.346191 0.000000 0.055908
0.391663 0.000000 0.055908
0.435181 0.000000 0.055908
0.477142 0.000000 0.055908
0.517639 0.000000 0.055908
0.557068 0.000000 0.055908
0.595245 0.000000 0.055908
0.632538 0.000000 0.055908
0.668945 0.000000 0.055908
0.704559 0.000000 0.055908
0.739532 0.000000 0.055908
0.773743 0.000000 0.055908
0.807404 0.000000 0.055908
0.840393 0.000000 0.055908
0.872986 0.000000 0.055908
0.904968 0.000000 0.055908
0.936615 0.000000 0.055908
0.967712 0.000000 0.055908
0.998413 0.000000 0.055908
1.000000 0.000000 0.055908
1.000000 0.000000 0.055908
1.000000 0.000000 0.055908
0.000000 0.041748 0.055908
0.000000 0.041748 0.055908
0.000000 0.041748 0.055908
0.062744 0.041748 0.055908
0.133240 0.041748 0.055908
0.193390 0.041748 0.055908
0.247894 0.041748 0.055908
0.298645 0.041748 0.055908
0.346191 0.041748 0.055908
0.391663 0.041748 0.055908
0.435181 0.041748 0.055908
0.477142 0.041748 0.055908
0.517639 0.041748 0.055908
0.557068 0.041748 0.055908
0.595245 0.041748 0.055908
0.632538 0.041748 0.055908
0.668945 0.041748 0.055908
0.704559 0.041748 0.055908
0.739532 0.041748 0.055908
0.773743 0.041748 0.055908
0.807404 0.041748 0.055908
0.840393 0.041748 0.055908
0.872986 0.041748 0.055908
0.904968 0.041748 0.055908
0.936615 0.041748 0.055908
0.967712 0.041748 0.055908
0.998413 0.041748 0.055908
1.000000 0.041748 0.055908
1.000000 0.041748 0.055908
1.000000 0.041748 0.055908
0.000000 0.105438 0.055908
0.000000 0.105438 0.055908
0.000000 0.105438 0.055908
0.062744 0.105438 0.055908
0.133240 0.105438 0.055908
0.193390 0.105438 0.055908
0.247894 0.105438 0.055908
0.298645 0.105438 0.055908
0.346191 0.105438 0.055908
0.391663 0.105438 0.055908
0.435181 0.105438 0.055908
0.477142 0.105438 0.055908
0.517639 0.105438 0.055908
0.557068 0.105438 0.055908
0.595245 0.105438 0.055908
0.632538 0.105438 0.055908
0.668945 0.105438 0.055908
0.704559 0.105438 0.055908
0.739532 0.105438 0.055908
0.773743 0.105438 0.055908
0.807404 0.105438 0.055908
0.840393 0.105438 0.055908
0.872986 0.105438 0.055908
0.904968 0.105438 0.055908
0.936615 0.105438 0.055908
0.967712 0.105438 0.055908
0.998413 0.105438 0.055908
1.000000 0.105438 0.055908
1.000000 0.105438 0.055908
1.000000 0.105438 0.055908
0.000000 0.161072 0.055908
0.000000 0.161072 0.055908
0.000000 0.161072 0.055908
0.062744 0.161072 0.055908
0.133240 0.161072 0.055908
0.193390 0.161072 0.055908
0.247894 0.161072 0.055908
0.298645 0.161072 0.055908
0.346191 0.161072 0.055908
0.391663 0.161072 0.055908
0.435181 0.161072 0.055908
0.477142 0.161072 0.055908
0.517639 0.161072 0.055908
0.557068 0.161072 0.055908
0.595245 0.161072 0.055908
0.632538 0.161072 0.055908
0.668945 0.161072 0.055908
0.704559 0.161072 0.055908
0.739532 0.161072 0.055908
0.773743 0.161072 0.055908
0.807404 0.161072 0.055908
0.840393 0.161072 0.055908
0.872986 0.161072 0.055908
0.904968 0.161072 0.055908
0.936615 0.161072 0.055908
0.967712 0.161072 0.055908
0.998413 0.161072 0.055908
1.000000 0.161072 0.055908
1.000000 0.161072 0.055908
1.000000 0.161072 0.055908
0.000000 0.212708 0.055908
0.000000 0.212708 0.055908
0.000000 0.212708 0.055908
0.062744 0.212708 0.055908
0.133240 0.212708 0.055908
0.193390 0.212708 0.055908
0.247894 0.212708 0.055908
0.298645 0.212708 0.055908
0.346191 0.212708 0.055908
0.391663 0.212708 0.055908
0.435181 0.212708 0.055908
0.477142 0.212708 0.055908
0.517639 0.212708 0.055908
0.557068 0.212708 0.055908
0.595245 0.212708 0.055908
0.632538 0.212708 0.055908
0.668945 0.212708 0.055908
0.704559 0.212708 0.055908
0.739532 0.212708 0.055908
0.773743 0.212708 0.055908
0.807404 0.212708 0.055908
0.840393 0.212708 0.055908
0.872986 0.212708 0.055908
0.904968 0.212708 0.055908
0.936615 0.212708 0.055908
0.967712 0.212708 0.055908
0.998413 0.212708 0.055908
1.000000 0.212708 0.055908
1.000000 0.212708 0.055908
1.000000 0.212708 0.055908
0.000000 0.261597 0.055908
0.000000 0.261597 0.055908
0.000000 0.261597 0.055908
0.062744 0.261597 0.055908
0.133240 0.261597 0.055908
0.193390 0.261597 0.055908
0.247894 0.261597 0.055908
0.298645 0.261597 0.055908
0.346191 0.261597 0.055908
0.391663 0.261597 0.055908
0.435181 0.261597 0.055908
0.477142 0.261597 0.055908
0.517639 0.261597 0.055908
0.557068 0.261597 0.055908
0.595245 0.261597 0.055908
0.632538 0.261597 0.055908
0.668945 0.261597 0.055908
0.704559 0.261597 0.055908
0.739532 0.261597 0.055908
0.773743 0.261597 0.055908
0.807404 0.261597 0.055908
0.840393 0.261597 0.055908
0.872986 0.261597 0.055908
0.904968 0.261597 0.055908
0.936615 0.261597 0.055908
0.967712 0.261597 0.055908
0.998413 0.261597 0.055908
1.000000 0.261597 0.055908
1.000000 0.261597 0.055908
1.000000 0.261597 0.055908
0.000000 0.308655 0.055908
0.000000 0.308655 0.055908
0.000000 0.308655 0.055908
0.062744 0.308655 0.055908
0.133240 0.308655 0.055908
0.193390 0.308655 0.055908
0.247894 0.308655 0.055908
0.298645 0.308655 0.055908
0.346191 0.308655 0.055908
0.391663 0.308655 0.055908
0.435181 0.308655 0.055908
0.477142 0.308655 0.055908
0.517639 0.308655 0.055908
0.557068 0.308655 0.055908
0.595245 0.308655 0.055908
0.632538 0.308655 0.055908
0.668945 0.308655 0.055908
0.704559 0.308655 0.055908
0.739532 0.308655 0.055908
0.773743 0.308655 0.055908
0.807404 0.308655 0.055908
0.840393 0.308655 0.055908
0.872986 0.308655 0.055908
0.904968 0.308655 0.055908
0.936615 0.308655 0.055908
0.967712 0.308655 0.055908
0.998413 0.308655 0.055908
1.000000 0.308655 0.055908
1.000000 0.308655 0.055908
1.000000 0.308655 0.055908
0.000000 0.354126 0.055908
0.000000 0.354126 0.055908
0.000000 0.354126 0.055908
0.062744 0.354126 0.055908
0.133240 0.354126 0.055908
0.193390 0.354126 0.055908
0.247894 0.354126 0.055908
0.298645 0.354126 0.055908
0.346191 0.354126 0.055908
0.391663 0.354126 0.055908
0.435181 0.354126 0.055908
0.477142 0.354126 0.055908
0.517639 0.354126 0.055908
0.557068 0.354126 0.055908
0.595245 0.354126 0.055908
0.632538 0.354126 0.055908
0.668945 0.354126 0.055908
0.704559 0.354126 0.055908
0.739532 0.354126 0.055908
0.773743 0.354126 0.055908
0.807404 0.354126 0.055908
0.840393 0.354126 0.055908
0.872986 0.354126 0.055908
0.904968 0.354126 0.055908
0.936615 0.354126 0.055908
0.967712 0.354126 0.055908
0.998413 0.354126 0.055908
1.000000 0.354126 0.055908
1.000000 0.354126 0.055908
1.000000 0.354126 0.055908
0.000000 0.398376 0.055908
0.000000 0.398376 0.055908
0.000000 0.398376 0.055908
0.062744 0.398376 0.055908
0.133240 0.398376 0.055908
0.193390 0.398376 0.055908
0.247894 0.398376 0.055908
0.298645 0.398376 0.055908
0.346191 0.398376 0.055908
0.391663 0.398376 0.055908
0.435181 0.398376 0.055908
0.477142 0.398376 0.055908
0.517639 0.398376 0.055908
0.557068 0.398376 0.055908
0.595245 0.398376 0.055908
0.632538 0.398376 0.055908
0.668945 0.398376 0.055908
0.704559 0.398376 0.055908
0.739532 0.398376 0.055908
0.773743 0.398376 0.055908
0.807404 0.398376 0.055908
0.840393 0.398376 0.055908
0.872986 0.398376 0.055908
0.904968 0.398376 0.055908
0.936615 0.398376 0.055908
0.967712 0.398376 0.055908
0.998413 0.398376 0.055908
1.000000 0.398376 0.055908
1.000000 0.398376 0.055908
1.000000 0.398376 0.055908
0.000000 0.441559 0.055908
0.000000 0.441559 0.055908
0.000000 0.441559 0.055908
0.062744 0.441559 0.055908
0.133240 0.441559 0.055908
0.193390 0.441559 0.055908
0.247894 0.441559 0.055908
0.298645 0.441559 0.055908
0.346191 0.441559 0.055908
0.391663 0.441559 0.055908
0.435181 0.441559 0.055908
0.477142 0.441559 0.055908
0.517639 0.441559 0.055908
0.557068 0.441559 0.055908
0.595245 0.441559 0.055908
0.632538 0.441559 0.055908
0.668945 0.441559 0.055908
0.704559 0.441559 0.055908
0.739532 0.441559 0.055908
0.773743 0.441559 0.055908
0.807404 0.441559 0.055908
0.840393 0.441559 0.055908
0.872986 0.441559 0.055908
0.904968 0.441559 0.055908
0.936615 0.441559 0.055908
0.967712 0.441559 0.055908
0.998413 0.441559 0.055908
1.000000 0.441559 0.055908
1.000000 0.441559 0.055908
1.000000 0.441559 0.055908
0.000000 0.483795 0.055908
0.000000 0.483795 0.055908
0.000000 0.483795 0.055908
0.062744 0.483795 0.055908
0.133240 0.483795 0.055908
0.193390 0.483795 0.055908
0.247894 0.483795 0.055908
0.298645 0.483795 0.055908
0.346191 0.483795 0.055908
0.391663 0.483795 0.055908
0.435181 0.483795 0.055908
0.477142 0.483795 0.055908
0.517639 0.483795 0.055908
0.557068 0.483795 0.055908
0.595245 0.483795 0.055908
0.632538 0.483795 0.055908
0.668945 0.483795 0.055908
0.704559 0.483795 0.055908
0.739532 0.483795 0.055908
0.773743 0.483795 0.055908
0.807404 0.483795 0.055908
0.840393 0.483795 0.055908
0.872986 0.483795 0.055908
0.904968 0.483795 0.055908
0.936615 0.483795 0.055908
0.967712 0.483795 0.055908
0.998413 0.483795 0.055908
1.000000 0.483795 0.055908
1.000000 0.483795 0.055908
1.000000 0.483795 0.055908
0.000000 0.525269 0.055908
0.000000 0.525269 0.055908
0.000000 0.525269 0.055908
0.062744 0.525269 0.055908
0.133240 0.525269 0.055908
0.193390 0.525269 0.055908
0.247894 0.525269 0.055908
0.298645 0.525269 0.055908
0.346191 0.525269 0.055908
0.391663 0.525269 0.055908
0.435181 0.525269 0.055908
0.477142 0.525269 0.055908
0.517639 0.525269 0.055908
0.557068 0.525269 0.055908
0.595245 0.525269 0.055908
0.632538 0.525269 0.055908
0.668945 0.525269 0.055908
0.704559 0.525269 0.055908
0.739532 0.525269 0.055908
0.773743 0.525269 0.055908
0.807404 0.525269 0.055908
0.840393 0.525269 0.055908
0.872986 0.525269 0.055908
0.904968 0.525269 0.055908
0.936615 0.525269 0.055908
0.967712 0.525269 0.055908
0.998413 0.525269 0.055908
1.000000 0.525269 0.055908
1.000000 0.525269 0.055908
1.000000 0.525269 0.055908
0.000000 0.566040 0.055908
0.000000 0.566040 0.055908
0.000000 0.566040 0.055908
0.062744 0.566040 0.055908
0.133240 0.566040 0.055908
0.193390 0.566040 0.055908
0.247894 0.566040 0.055908
0.298645 0.566040 0.055908
0.346191 0.566040 0.055908
0.391663 0.566040 0.055908
0.435181 0.566040 0.055908
0.477142 0.566040 0.055908
0.517639 0.566040 0.055908
0.557068 0.566040 0.055908
0.595245 0.566040 0.055908
0.632538 0.566040 0.055908
0.668945 0.566040 0.055908
0.704559 0.566040 0.055908
0.739532 0.566040 0.055908
0.773743 0.566040 0.055908
0.807404 0.566040 0.055908
0.840393 0.566040 0.055908
0.872986 0.566040 0.055908
0.904968 0.566040 0.055908
0.936615 0.566040 0.055908
0.967712 0.566040 0.055908
0.998413 0.566040 0.055908
1.000000 0.566040 0.055908
1.000000 0.566040 0.055908
1.000000 0.566040 0.055908
0.000000 0.606140 0.055908
0.000000 0.606140 0.055908
0.000000 0.606140 0.055908
0.062744 0.606140 0.055908
0.133240 0.606140 0.055908
0.193390 0.606140 0.055908
0.247894 0.606140 0.055908
0.298645 0.606140 0.055908
0.346191 0.606140 0.055908
0.391663 0.606140 0.055908
0.435181 0.606140 0.055908
0.477142 0.606140 0.055908
0.517639 0.606140 0.055908
0.557068 0.606140 0.055908
0.595245 0.606140 0.055908
0.632538 0.606140 0.055908
0.668945 0.606140 0.055908
0.704559 0.606140 0.055908
0.739532 0.606140 0.055908
0.773743 0.606140 0.055908
0.807404 0.606140 0.055908
0.840393 0.606140 0.055908
0.872986 0.606140 0.055908
0.904968 0.606140 0.055908
0.936615 0.606140 0.055908
0.967712 0.606140 0.055908
0.998413 0.606140 0.055908
1.000000 0.606140 0.055908
1.000000 0.606140 0.055908
1.000000 0.606140 0.055908
0.000000 0.645691 0.055908
0.000000 0.645691 0.055908
0.000000 0.645691 0.055908
0.062744 0.645691 0.055908
0.133240 0.645691 0.055908
0.193390 0.645691 0.055908
0.247894 0.645691 0.055908
0.298645 0.645691 0.055908
0.346191 0.645691 0.055908
0.391663 0.645691 0.055908
0.435181 0.645691 0.055908
0.477142 0.645691 0.055908
0.517639 0.645691 0.055908
0.557068 0.645691 0.055908
0.595245 0.645691 0.055908
0.632538 0.645691 0.055908
0.668945 0.645691 0.055908
0.704559 0.645691 0.055908
0.739532 0.645691 0.055908
0.773743 0.645691 0.055908
0.807404 0.645691 0.055908
0.840393 0.645691 0.055908
0.872986 0.645691 0.055908
0.904968 0.645691 0.055908
0.936615 0.645691 0.055908
0.967712 0.645691 0.055908
0.998413 0.645691 0.055908
1.000000 0.645691 0.055908
1.000000 0.645691 0.055908
1.000000 0.645691 0.055908
0.000000 0.684723 0.055908
0.000000 0.684723 0.055908
0.000000 0.684723 0.055908
0.062744 0.684723 0.055908
0.133240 0.684723 0.055908
0.193390 0.684723 0.055908
0.247894 0.684723 0.055908
0.298645 0.684723 0.055908
0.346191 0.684723 0.055908
0.391663 0.684723 0.055908
0.435181 0.684723 0.055908
0.477142 0.684723 0.055908
0.517639 0.684723 0.055908
0.557068 0.684723 0.055908
0.595245 0.684723 0.055908
0.632538 0.684723 0.055908
0.668945 0.684723 0.055908
0.704559 0.684723 0.055908
0.739532 0.684723 0.055908
0.773743 0.684723 0.055908
0.807404 0.684723 0.055908
0.840393 0.684723 0.055908
0.872986 0.684723 0.055908
0.904968 0.684723 0.055908
0.936615 0.684723 0.055908
0.967712 0.684723 0.055908
0.998413 0.684723 0.055908
1.000000 0.684723 0.055908
1.000000 0.684723 0.055908
1.000000 0.684723 0.055908
0.000000 0.723236 0.055908
0.000000 0.723236 0.055908
0.000000 0.723236 0.055908
0.062744 0.723236 0.055908
0.133240 0.723236 0.055908
0.193390 0.723236 0.055908
0.247894 0.723236 0.055908
0.298645 0.723236 0.055908
0.346191 0.723236 0.055908
0.391663 0.723236 0.055908
0.435181 0.723236 0.055908
0.477142 0.723236 0.055908
0.517639 0.723236 0.055908
0.557068 0.723236 0.055908
0.595245 0.723236 0.055908
0.632538 0.723236 0.055908
0.668945 0.723236 0.055908
0.704559 0.723236 0.055908
0.739532 0.723236 0.055908
0.773743 0.723236 0.055908
0.807404 0.723236 0.055908
0.840393 0.723236 0.055908
0.872986 0.723236 0.055908
0.904968 0.723236 0.055908
0.936615 0.723236 0.055908
0.967712 0.723236 0.055908
0.998413 0.723236 0.055908
1.000000 0.723236 0.055908
1.000000 0.723236 0.055908
1.000000 0.723236 0.055908
0.000000 0.761322 0.055908
0.000000 0.761322 0.055908
0.000000 0.761322 0.055908
0.062744 0.761322 0.055908
0.133240 0.761322 0.055908
0.193390 0.761322 0.055908
0.247894 0.761322 0.055908
0.298645 0.761322 0.055908
0.346191 0.761322 0.055908
0.391663 0.761322 0.055908
0.435181 0.761322 0.055908
0.477142 0.761322 0.055908
0.517639 0.761322 0.055908
0.557068 0.761322 0.055908
0.595245 0.761322 0.055908
0.632538 0.761322 0.055908
0.668945 0.761322 0.055908
0.704559 0.761322 0.055908
0.739532 0.761322 0.055908
0.773743 0.761322 0.055908
0.807404 0.761322 0.055908
0.840393 0.761322 0.055908
0.872986 0.761322 0.055908
0.904968 0.761322 0.055908
0.936615 0.761322 0.055908
0.967712 0.761322 0.055908
0.998413 0.761322 0.055908
1.000000 0.761322 0.055908
1.000000 0.761322 0.055908
1.000000 0.761322 0.055908
0.000000 0.799011 0.055908
0.000000 0.799011 0.055908
0.000000 0.799011 0.055908
0.062744 0.799011 0.055908
0.133240 0.799011 0.055908
0.193390 0.799011 0.055908
0.247894 0.799011 0.055908
0.298645 0.799011 0.055908
0.346191 0.799011 0.055908
0.391663 0.799011 0.055908
0.435181 0.799011 0.055908
0.477142 0.799011 0.055908
0.517639 0.799011 0.055908
0.557068 0.799011 0.055908
0.595245 0.799011 0.055908
0.632538 0.799011 0.055908
0.668945 0.799011 0.055908
0.704559 0.799011 0.055908
0.739532 0.799011 0.055908
0.773743 0.799011 0.055908
0.807404 0.799011 0.055908
0.840393 0.799011 0.055908
0.872986 0.799011 0.055908
0.904968 0.799011 0.055908
0.936615 0.799011 0.055908
0.967712 0.799011 0.055908
0.998413 0.799011 0.055908
1.000000 0.799011 0.055908
1.000000 0.799011 0.055908
1.000000 0.799011 0.055908
0.000000 0.836273 0.055908
0.000000 0.836273 0.055908
0.000000 0.836273 0.055908
0.062744 0.836273 0.055908
0.133240 0.836273 0.055908
0.193390 0.836273 0.055908
0.247894 0.836273 0.055908
0.298645 0.836273 0.055908
0.346191 0.836273 0.055908
0.391663 0.836273 0.055908
0.435181 0.836273 0.055908
0.477142 0.836273 0.055908
0.517639 0.836273 0.055908
0.557068 0.836273 0.055908
0.595245 0.836273 0.055908
0.632538 0.836273 0.055908
0.668945 0.836273 0.055908
0.704559 0.836273 0.055908
0.739532 0.836273 0.055908
0.773743 0.836273 0.055908
0.807404 0.836273 0.055908
0.840393 0.836273 0.055908
0.872986 0.836273 0.055908
0.904968 0.836273 0.055908
0.936615 0.836273 0.055908
0.967712 0.836273 0.055908
0.998413 0.836273 0.055908
1.000000 0.836273 0.055908
1.000000 0.836273 0.055908
1.000000 0.836273 0.055908
0.000000 0.873199 0.055908
0.000000 0.873199 0.055908
0.000000 0.873199 0.055908
0.062744 0.873199 0.055908
0.133240 0.873199 0.055908
0.193390 0.873199 0.055908
0.247894 0.873199 0.055908
0.298645 0.873199 0.055908
0.346191 0.873199 0.055908
0.391663 0.873199 0.055908
0.435181 0.873199 0.055908
0.477142 0.873199 0.055908
0.517639 0.873199 0.055908
0.557068 0.873199 0.055908
0.595245 0.873199 0.055908
0.632538 0.873199 0.055908
0.668945 0.873199 0.055908
0.704559 0.873199 0.055908
0.739532 0.873199 0.055908
0.773743 0.873199 0.055908
0.807404 0.873199 0.055908
0.840393 0.873199 0.055908
0.872986 0.873199 0.055908
0.904968 0.873199 0.055908
0.936615 0.873199 0.055908
0.967712 0.873199 0.055908
0.998413 0.873199 0.055908
1.000000 0.873199 0.055908
1.000000 0.873199 0.055908
1.000000 0.873199 0.055908
0.000000 0.909790 0.055908
0.000000 0.909790 0.055908
0.000000 0.909790 0.055908
0.062744 0.909790 0.055908
0.133240 0.909790 0.055908
0.193390 0.909790 0.055908
0.247894 0.909790 0.055908
0.298645 0.909790 0.055908
0.346191 0.909790 0.055908
0.391663 0.909790 0.055908
0.435181 0.909790 0.055908
0.477142 0.909790 0.055908
0.517639 0.909790 0.055908
0.557068 0.909790 0.055908
0.595245 0.909790 0.055908
0.632538 0.909790 0.055908
0.668945 0.909790 0.055908
0.704559 0.909790 0.055908
0.739532 0.909790 0.055908
0.773743 0.909790 0.055908
0.807404 0.909790 0.055908
0.840393 0.909790 0.055908
0.872986 0.909790 0.055908
0.904968 0.909790 0.055908
0.936615 0.909790 0.055908
0.967712 0.909790 0.055908
0.998413 0.909790 0.055908
1.000000 0.909790 0.055908
1.000000 0.909790 0.055908
1.000000 0.909790 0.055908
0.000000 0.946045 0.055908
0.000000 0.946045 0.055908
0.000000 0.946045 0.055908
0.062744 0.946045 0.055908
0.133240 0.946045 0.055908
0.193390 0.946045 0.055908
0.247894 0.946045 0.055908
0.298645 0.946045 0.055908
0.346191 0.946045 0.055908
0.391663 0.946045 0.055908
0.435181 0.946045 0.055908
0.477142 0.946045 0.055908
0.517639 0.946045 0.055908
0.557068 0.946045 0.055908
0.595245 0.946045 0.055908
0.632538 0.946045 0.055908
0.668945 0.946045 0.055908
0.704559 0.946045 0.055908
0.739532 0.946045 0.055908
0.773743 0.946045 0.055908
0.807404 0.946045 0.055908
0.840393 0.946045 0.055908
0.872986 0.946045 0.055908
0.904968 0.946045 0.055908
0.936615 0.946045 0.055908
0.967712 0.946045 0.055908
0.998413 0.946045 0.055908
1.000000 0.946045 0.055908
1.000000 0.946045 0.055908
1.000000 0.946045 0.055908
0.000000 0.982056 0.055908
0.000000 0.982056 0.055908
0.000000 0.982056 0.055908
0.062744 0.982056 0.055908
0.133240 0.982056 0.055908
0.193390 0.982056 0.055908
0.247894 0.982056 0.055908
0.298645 0.982056 0.055908
0.346191 0.982056 0.055908
0.391663 0.982056 0.055908
0.435181 0.982056 0.055908
0.477142 0.982056 0.055908
0.517639 0.982056 0.055908
0.557068 0.982056 0.055908
0.595245 0.982056 0.055908
0.632538 0.982056 0.055908
0.668945 0.982056 0.055908
0.704559 0.982056 0.055908
0.739532 0.982056 0.055908
0.773743 0.982056 0.055908
0.807404 0.982056 0.055908
0.840393 0.982056 0.055908
0.872986 0.982056 0.055908
0.904968 0.982056 0.055908
0.936615 0.982056 0.055908
0.967712 0.982056 0.055908
0.998413 0.982056 0.055908
1.000000 0.982056 0.055908
1.000000 0.982056 0.055908
1.000000 0.982056 0.055908
0.000000 1.000000 0.055908
0.000000 1.000000 0.055908
0.000000 1.000000 0.055908
0.062744 1.000000 0.055908
0.133240 1.000000 0.055908
0.193390 1.000000 0.055908
0.247894 1.000000 0.055908
0.298645 1.000000 0.055908
0.346191 1.000000 0.055908
0.391663 1.000000 0.055908
0.435181 1.000000 0.055908
0.477142 1.000000 0.055908
0.517639 1.000000 0.055908
0.557068 1.000000 0.055908
0.595245 1.000000 0.055908
0.632538 1.000000 0.055908
0.668945 1.000000 0.055908
0.704559 1.000000 0.055908
0.739532 1.000000 0.055908
0.773743 1.000000 0.055908
0.807404 1.000000 0.055908
0.840393 1.000000 0.055908
0.872986 1.000000 0.055908
0.904968 1.000000 0.055908
0.936615 1.000000 0.055908
0.967712 1.000000 0.055908
0.998413 1.000000 0.055908
1.000000 1.000000 0.055908
1.000000 1.000000 0.055908
1.000000 1.000000 0.055908
0.000000 1.000000 0.055908
0.000000 1.000000 0.055908
0.000000 1.000000 0.055908
0.062744 1.000000 0.055908
0.133240 1.000000 0.055908
0.193390 1.000000 0.055908
0.247894 1.000000 0.055908
0.298645 1.000000 0.055908
0.346191 1.000000 0.055908
0.391663 1.000000 0.055908
0.435181 1.000000 0.055908
0.477142 1.000000 0.055908
0.517639 1.000000 0.055908
0.557068 1.000000 0.055908
0.595245 1.000000 0.055908
0.632538 1.000000 0.055908
0.668945 1.000000 0.055908
0.704559 1.000000 0.055908
0.739532 1.000000 0.055908
0.773743 1.000000 0.055908
0.807404 1.000000 0.055908
0.840393 1.000000 0.055908
0.872986 1.000000 0.055908
0.904968 1.000000 0.055908
0.936615 1.000000 0.055908
0.967712 1.000000 0.055908
0.998413 1.000000 0.055908
1.000000 1.000000 0.055908
1.000000 1.000000 0.055908
1.000000 1.000000 0.055908
0.000000 1.000000 0.055908
0.000000 1.000000 0.055908
0.000000 1.000000 0.055908
0.062744 1.000000 0.055908
0.133240 1.000000 0.055908
0.193390 1.000000 0.055908
0.247894 1.000000 0.055908
0.298645 1.000000 0.055908
0.346191 1.000000 0.055908
0.391663 1.000000 0.055908
0.435181 1.000000 0.055908
0.477142 1.000000 0.055908
