src/test/test1/test2/test/public/assets/textures/Exo2.CUBE
#Created by: Adobe Photoshop Export Color Lookup Plugin
TITLE "Capture.JPG"
#LUT size
LUT_3D_SIZE 5
#data domain
#LUT data points
DOMAIN_MIN 0.000000 0.000000 0.000000
DOMAIN_MAX 0.827586 0.827586 0.827586
0.000000 0.000000 0.055908
0.247894 0.000000 0.055908
0.517639 0.000000 0.055908
0.739532 0.000000 0.055908
0.936615 0.000000 0.055908
0.000000 0.161072 0.055908
0.247894 0.161072 0.055908
0.517639 0.161072 0.055908
0.739532 0.161072 0.055908
0.936615 0.161072 0.055908
0.000000 0.441559 0.055908
0.247894 0.441559 0.055908
0.517639 0.441559 0.055908
0.739532 0.441559 0.055908
0.936615 0.441559 0.055908
0.000000 0.684723 0.055908
0.247894 0.684723 0.055908
0.517639 0.684723 0.055908
0.739532 0.684723 0.055908
0.936615 0.684723 0.055908
0.000000 0.909790 0.055908
0.247894 0.909790 0.055908
0.517639 0.909790 0.055908
0.739532 0.909790 0.055908
0.936615 0.909790 0.055908
0.000000 0.000000 0.277618
0.247894 0.000000 0.277618
0.517639 0.000000 0.277618
0.739532 0.000000 0.277618
0.936615 0.000000 0.277618
0.000000 0.161072 0.277618
0.247894 0.161072 0.277618
0.517639 0.161072 0.277618
0.739532 0.161072 0.277618
0.936615 0.161072 0.277618
0.000000 0.441559 0.277618
0.247894 0.441559 0.277618
0.517639 0.441559 0.277618
0.739532 0.441559 0.277618
0.936615 0.441559 0.277618
0.000000 0.684723 0.277618
0.247894 0.684723 0.277618
0.517639 0.684723 0.277618
0.739532 0.684723 0.277618
0.936615 0.684723 0.277618
0.000000 0.909790 0.277618
0.247894 0.909790 0.277618
0.517639 0.909790 0.277618
0.739532 0.909790 0.277618
0.936615 0.909790 0.277618
0.000000 0.000000 0.541504
0.247894 0.000000 0.541504
0.517639 0.000000 0.541504
0.739532 0.000000 0.541504
0.936615 0.000000 0.541504
0.000000 0.161072 0.541504
0.247894 0.161072 0.541504
0.517639 0.161072 0.541504
0.739532 0.161072 0.541504
0.936615 0.161072 0.541504
0.000000 0.441559 0.541504
0.247894 0.441559 0.541504
0.517639 0.441559 0.541504
0.739532 0.441559 0.541504
0.936615 0.441559 0.541504
0.000000 0.684723 0.541504
0.247894 0.684723 0.541504
0.517639 0.684723 0.541504
0.739532 0.684723 0.541504
0.936615 0.684723 0.541504
0.000000 0.909790 0.541504
0.247894 0.909790 0.541504
0.517639 0.909790 0.541504
0.739532 0.909790 0.541504
0.936615 0.909790 0.541504
0.000000 0.000000 0.754547
0.247894 0.000000 0.754547
0.517639 0.000000 0.754547
0.739532 0.000000 0.754547
0.936615 0.000000 0.754547
0.000000 0.161072 0.754547
0.247894 0.161072 0.754547
0.517639 0.161072 0.754547
0.739532 0.161072 0.754547
0.936615 0.161072 0.754547
0.000000 0.441559 0.754547
0.247894 0.441559 0.754547
0.517639 0.441559 0.754547
0.739532 0.441559 0.754547
0.936615 0.441559 0.754547
0.000000 0.684723 0.754547
0.247894 0.684723 0.754547
0.517639 0.684723 0.754547
0.739532 0.684723 0.754547
0.936615 0.684723 0.754547
0.000000 0.909790 0.754547
0.247894 0.909790 0.754547
0.517639 0.909790 0.754547
0.739532 0.909790 0.754547
0.936615 0.909790 0.754547
0.000000 0.000000 0.943237
0.247894 0.000000 0.943237
0.517639 0.000000 0.943237
0.739532 0.000000 0.943237
0.936615 0.000000 0.943237
0.000000 0.161072 0.943237
0.247894 0.161072 0.943237
0.517639 0.161072 0.943237
0.739532 0.161072 0.943237
0.936615 0.161072 0.943237
0.000000 0.441559 0.943237
0.247894 0.441559 0.943237
0.517639 0.441559 0.943237
0.739532 0.441559 0.943237
0.936615 0.441559 0.943237
0.000000 0.684723 0.943237
0.247894 0.684723 0.943237
0.517639 0.684723 0.943237
0.739532 0.684723 0.943237
0.936615 0.684723 0.943237
0.000000 0.909790 0.943237
0.247894 0.909790 0.943237
0.517639 0.909790 0.943237
0.739532 0.909790 0.943237
0.936615 0.909790 0.943237
